_inc/systems/logos/auto-board.svg

<?xml version="1.0" encoding="utf-8"?>
<svg version="1.1" id="Warstwa_1" x="0px" y="0px" viewBox="0 0 200 40" xmlns="http://www.w3.org/2000/svg">
  <g transform="matrix(1, 0, 0, 1, 11.094524, -7.391703)">
    <g>
      <path d="M 39.865 43.157 C 34.508 43.157 29.15 43.145 23.792 43.169 C 23.108 43.174 22.919 42.956 23.013 42.307 C 23.226 40.891 23.574 39.575 24.919 38.767 C 25.031 38.696 25.102 38.466 25.096 38.312 C 25.073 37.728 24.96 37.144 24.96 36.566 C 24.943 28.635 24.943 20.705 24.937 12.775 C 24.937 11.813 24.937 11.813 25.916 11.813 C 35.263 11.813 44.609 11.819 53.956 11.795 C 54.688 11.795 54.865 12.019 54.859 12.721 C 54.835 21.171 54.847 29.621 54.835 38.07 C 54.835 38.519 54.924 38.832 55.301 39.15 C 56.387 40.077 56.647 41.381 56.717 42.726 C 56.747 43.204 56.375 43.145 56.074 43.151 C 54.139 43.163 52.204 43.174 50.268 43.18 C 46.799 43.186 43.329 43.18 39.859 43.18 C 39.865 43.174 39.865 43.163 39.865 43.157 Z M 25.491 12.426 C 25.491 21.201 25.491 29.91 25.491 38.619 C 35.062 38.619 44.645 38.619 54.233 38.619 C 54.233 29.863 54.233 21.165 54.233 12.426 C 44.674 12.426 35.157 12.426 25.491 12.426 Z M 56.363 42.555 C 55.968 41.581 55.691 40.743 55.295 39.964 C 55.03 39.433 54.522 39.191 53.873 39.239 C 53.218 39.286 52.552 39.251 51.891 39.251 C 43.211 39.251 34.525 39.245 25.846 39.262 C 25.497 39.262 25.061 39.351 24.813 39.563 C 23.91 40.324 23.674 41.387 23.591 42.555 C 34.472 42.555 45.27 42.555 56.363 42.555 Z" style="fill: rgb(204, 204, 204);"/>
      <path d="M 30.159 33.114 C 31.457 33.114 32.49 34.152 32.49 35.439 C 32.49 36.707 31.41 37.787 30.147 37.775 C 28.867 37.764 27.816 36.707 27.822 35.427 C 27.822 34.135 28.855 33.108 30.159 33.114 Z" style="fill: rgb(204, 204, 204);"/>
      <path d="M 45.53 35.439 C 45.524 36.719 44.462 37.781 43.187 37.775 C 41.913 37.769 40.851 36.701 40.857 35.421 C 40.863 34.123 41.895 33.108 43.199 33.108 C 44.497 33.114 45.536 34.146 45.53 35.439 Z" style="fill: rgb(204, 204, 204);"/>
      <path d="M 49.961 24.947 C 48.669 24.959 47.625 23.933 47.619 22.634 C 47.613 21.33 48.634 20.292 49.92 20.28 C 51.189 20.268 52.274 21.33 52.28 22.599 C 52.298 23.874 51.242 24.93 49.961 24.947 Z" style="fill: rgb(204, 204, 204);"/>
      <path d="M 49.961 31.35 C 48.663 31.361 47.625 30.335 47.619 29.042 C 47.613 27.744 48.634 26.7 49.926 26.688 C 51.195 26.676 52.274 27.738 52.286 29.007 C 52.292 30.282 51.248 31.338 49.961 31.35 Z" style="fill: rgb(204, 204, 204);"/>
      <path d="M 34.466 35.462 C 34.454 34.152 35.458 33.126 36.762 33.114 C 38.066 33.102 39.116 34.117 39.134 35.403 C 39.151 36.66 38.083 37.752 36.821 37.775 C 35.546 37.799 34.472 36.743 34.466 35.462 Z" style="fill: rgb(204, 204, 204);"/>
      <path d="M 47.619 35.456 C 47.613 34.146 48.616 33.12 49.92 33.114 C 51.212 33.108 52.274 34.135 52.286 35.415 C 52.298 36.678 51.236 37.758 49.967 37.781 C 48.693 37.799 47.625 36.737 47.619 35.456 Z" style="fill: rgb(204, 204, 204);"/>
      <path d="M 45.53 22.646 C 45.518 23.927 44.456 24.965 43.164 24.947 C 41.877 24.93 40.839 23.868 40.857 22.587 C 40.874 21.301 41.942 20.262 43.223 20.28 C 44.509 20.298 45.542 21.36 45.53 22.646 Z M 43.176 24.381 C 44.137 24.393 44.94 23.614 44.963 22.652 C 44.981 21.69 44.208 20.876 43.252 20.847 C 42.261 20.817 41.435 21.62 41.435 22.611 C 41.429 23.579 42.208 24.375 43.176 24.381 Z" style="fill: rgb(204, 204, 204);"/>
      <path d="M 30.135 24.947 C 28.843 24.936 27.81 23.897 27.816 22.605 C 27.822 21.319 28.878 20.274 30.159 20.28 C 31.439 20.286 32.484 21.348 32.484 22.629 C 32.484 23.903 31.422 24.953 30.135 24.947 Z M 31.917 22.581 C 31.9 21.625 31.097 20.841 30.135 20.847 C 29.173 20.852 28.389 21.649 28.389 22.611 C 28.389 23.614 29.203 24.405 30.2 24.381 C 31.162 24.351 31.935 23.543 31.917 22.581 Z" style="fill: rgb(204, 204, 204);"/>
      <path d="M 49.932 13.719 C 51.212 13.713 52.28 14.769 52.286 16.038 C 52.286 17.306 51.218 18.374 49.949 18.386 C 48.669 18.398 47.619 17.347 47.619 16.055 C 47.619 14.745 48.628 13.724 49.932 13.719 Z M 48.179 16.055 C 48.185 17.011 48.982 17.82 49.932 17.82 C 50.876 17.82 51.69 17.017 51.714 16.067 C 51.731 15.082 50.905 14.267 49.914 14.285 C 48.935 14.303 48.179 15.082 48.179 16.055 Z" style="fill: rgb(204, 204, 204);"/>
      <path d="M 43.187 13.719 C 44.486 13.713 45.524 14.739 45.53 16.038 C 45.536 17.312 44.474 18.386 43.205 18.386 C 41.925 18.386 40.868 17.336 40.863 16.055 C 40.857 14.763 41.889 13.724 43.187 13.719 Z M 43.181 14.285 C 42.208 14.291 41.435 15.07 41.435 16.043 C 41.435 17.005 42.226 17.808 43.176 17.825 C 44.149 17.837 44.981 16.993 44.963 16.014 C 44.946 15.046 44.155 14.279 43.181 14.285 Z" style="fill: rgb(204, 204, 204);"/>
      <path d="M 27.822 16.043 C 27.822 14.745 28.855 13.719 30.153 13.719 C 31.445 13.719 32.49 14.757 32.49 16.043 C 32.49 17.318 31.427 18.38 30.153 18.38 C 28.873 18.38 27.822 17.33 27.822 16.043 Z M 28.389 16.067 C 28.4 17.029 29.203 17.825 30.153 17.825 C 31.127 17.82 31.947 16.97 31.917 15.99 C 31.888 15.023 31.085 14.273 30.112 14.285 C 29.144 14.303 28.371 15.093 28.389 16.067 Z" style="fill: rgb(204, 204, 204);"/>
      <path d="M 36.768 24.947 C 35.475 24.936 34.454 23.897 34.466 22.593 C 34.478 21.301 35.528 20.262 36.815 20.28 C 38.089 20.292 39.145 21.372 39.134 22.64 C 39.122 23.909 38.048 24.959 36.768 24.947 Z M 36.773 24.381 C 37.735 24.387 38.544 23.602 38.561 22.646 C 38.579 21.667 37.753 20.835 36.768 20.847 C 35.8 20.858 35.027 21.643 35.027 22.617 C 35.027 23.59 35.806 24.375 36.773 24.381 Z" style="fill: rgb(204, 204, 204);"/>
      <path d="M 34.466 16.043 C 34.466 14.739 35.493 13.713 36.791 13.719 C 38.077 13.719 39.134 14.763 39.134 16.043 C 39.134 17.306 38.054 18.386 36.791 18.386 C 35.505 18.38 34.466 17.336 34.466 16.043 Z M 35.027 16.008 C 35.015 16.976 35.776 17.784 36.732 17.82 C 37.694 17.855 38.555 17.017 38.555 16.043 C 38.555 15.082 37.771 14.297 36.797 14.285 C 35.835 14.273 35.045 15.04 35.027 16.008 Z" style="fill: rgb(204, 204, 204);"/>
      <path d="M 30.159 31.355 C 28.861 31.355 27.822 30.323 27.822 29.031 C 27.822 27.744 28.861 26.694 30.147 26.688 C 31.422 26.682 32.484 27.738 32.49 29.019 C 32.495 30.293 31.433 31.355 30.159 31.355 Z M 31.923 29.048 C 31.935 28.092 31.162 27.284 30.194 27.255 C 29.232 27.225 28.418 27.998 28.389 28.96 C 28.359 29.969 29.138 30.771 30.141 30.777 C 31.115 30.783 31.905 30.01 31.923 29.048 Z" style="fill: rgb(204, 204, 204);"/>
      <path d="M 34.466 29.048 C 34.46 27.75 35.475 26.706 36.768 26.688 C 38.036 26.67 39.122 27.727 39.134 29.001 C 39.151 30.27 38.089 31.344 36.815 31.355 C 35.517 31.367 34.472 30.341 34.466 29.048 Z M 36.797 30.777 C 37.771 30.771 38.555 29.992 38.561 29.031 C 38.567 28.081 37.771 27.266 36.815 27.255 C 35.823 27.237 35.015 28.045 35.027 29.048 C 35.039 30.016 35.818 30.783 36.797 30.777 Z" style="fill: rgb(204, 204, 204);"/>
      <path d="M 45.53 29.025 C 45.53 30.305 44.48 31.355 43.193 31.355 C 41.907 31.355 40.857 30.305 40.863 29.025 C 40.868 27.738 41.913 26.694 43.199 26.688 C 44.474 26.682 45.53 27.744 45.53 29.025 Z M 44.963 29.031 C 44.969 28.069 44.179 27.266 43.223 27.255 C 42.231 27.243 41.423 28.051 41.435 29.048 C 41.447 30.016 42.226 30.783 43.205 30.777 C 44.179 30.777 44.958 29.998 44.963 29.031 Z" style="fill: rgb(204, 204, 204);"/>
      <path d="M 31.457 41.198 C 32.543 41.198 33.628 41.186 34.714 41.21 C 34.879 41.215 35.039 41.375 35.204 41.469 C 35.045 41.569 34.885 41.746 34.726 41.752 C 32.555 41.77 30.389 41.77 28.218 41.752 C 28.041 41.752 27.864 41.558 27.692 41.451 C 27.864 41.369 28.035 41.215 28.206 41.215 C 29.286 41.186 30.371 41.198 31.457 41.198 Z" style="fill: rgb(204, 204, 204);"/>
      <path d="M 25.545 41.882 C 25.214 41.741 24.925 41.611 24.636 41.487 C 24.931 41.392 25.226 41.292 25.515 41.198 C 25.539 41.192 25.562 41.192 25.586 41.198 C 25.875 41.292 26.17 41.392 26.459 41.493 C 26.164 41.617 25.875 41.741 25.545 41.882 Z" style="fill: rgb(204, 204, 204);"/>
    </g>
  </g>
  <path d="M 70.793 19.378 L 74.093 0.628 L 83.333 0.628 C 84.773 0.628 85.818 0.878 86.468 1.378 C 87.118 1.878 87.443 2.648 87.443 3.688 C 87.443 5.208 87.108 6.458 86.438 7.438 C 85.768 8.418 84.953 9.028 83.993 9.268 L 83.963 9.448 C 85.763 9.788 86.663 10.978 86.663 13.018 C 86.663 14.818 86.173 16.328 85.193 17.548 C 84.213 18.768 82.833 19.378 81.053 19.378 Z M 80.033 11.908 L 77.783 11.908 L 77.243 14.968 L 79.463 14.968 C 79.963 14.968 80.343 14.768 80.603 14.368 C 80.863 13.968 80.993 13.458 80.993 12.838 C 80.993 12.218 80.673 11.908 80.033 11.908 Z M 80.873 4.738 L 79.073 4.738 L 78.563 7.528 L 80.333 7.528 C 81.253 7.528 81.713 6.878 81.713 5.578 C 81.713 5.018 81.433 4.738 80.873 4.738 Z M 95.602 6.898 L 94.222 14.698 L 96.592 14.698 C 97.372 14.698 97.952 14.603 98.332 14.413 C 98.712 14.223 98.962 13.788 99.082 13.108 L 100.462 5.308 L 98.062 5.308 C 97.302 5.308 96.732 5.403 96.352 5.593 C 95.972 5.783 95.722 6.218 95.602 6.898 Z M 99.052 0.178 C 101.592 0.178 103.402 0.673 104.482 1.663 C 105.562 2.653 106.102 4.178 106.102 6.238 C 106.102 8.298 105.777 10.453 105.127 12.703 C 104.477 14.953 103.447 16.703 102.037 17.953 C 100.627 19.203 98.567 19.828 95.857 19.828 C 93.147 19.828 91.252 19.333 90.172 18.343 C 89.092 17.353 88.552 15.828 88.552 13.768 C 88.552 12.788 88.692 11.493 88.972 9.883 C 89.252 8.273 89.622 6.883 90.082 5.713 C 90.542 4.543 91.162 3.528 91.942 2.668 C 93.442 1.008 95.812 0.178 99.052 0.178 Z M 111.291 19.378 L 105.291 19.378 L 113.181 0.628 L 122.001 0.628 L 123.321 19.378 L 117.291 19.378 L 117.171 16.408 L 112.461 16.408 Z M 116.421 6.388 L 114.321 11.638 L 116.721 11.638 L 116.721 6.388 Z M 140.84 19.378 L 134.57 19.378 L 133.19 13.798 L 131.96 13.798 L 131 19.378 L 125.3 19.378 L 128.6 0.628 L 137.6 0.628 C 141.02 0.628 142.73 2.158 142.73 5.218 C 142.73 6.478 142.54 7.678 142.16 8.818 C 141.46 10.978 140.36 12.418 138.86 13.138 Z M 133.43 5.428 L 132.77 9.178 L 134.09 9.178 C 134.77 9.178 135.285 9.103 135.635 8.953 C 135.985 8.803 136.225 8.373 136.355 7.663 C 136.485 6.953 136.55 6.518 136.55 6.358 C 136.55 5.958 136.395 5.703 136.085 5.593 C 135.775 5.483 135.27 5.428 134.57 5.428 Z M 143.27 19.378 L 146.57 0.628 L 154.55 0.628 C 157.13 0.628 158.965 1.083 160.055 1.993 C 161.145 2.903 161.69 4.378 161.69 6.418 C 161.69 7.458 161.57 8.658 161.33 10.018 C 160.73 13.378 159.705 15.778 158.255 17.218 C 156.805 18.658 154.47 19.378 151.25 19.378 Z M 153.77 5.428 L 151.4 5.428 L 149.81 14.578 L 152.18 14.578 C 152.96 14.578 153.54 14.483 153.92 14.293 C 154.3 14.103 154.55 13.668 154.67 12.988 L 155.72 7.018 C 155.74 6.898 155.75 6.738 155.75 6.538 C 155.75 6.078 155.59 5.778 155.27 5.638 C 154.95 5.498 154.45 5.428 153.77 5.428 Z" style="white-space: pre; fill: rgb(255, 255, 255);"/>
  <path d="M 83.328 33.852 L 83.478 33.042 L 82.038 33.042 L 82.848 28.452 L 89.718 28.452 L 87.948 38.472 C 85.508 39.372 83.058 39.822 80.598 39.822 C 78.138 39.822 76.363 39.332 75.273 38.352 C 74.183 37.372 73.638 35.862 73.638 33.822 C 73.638 32.962 73.778 31.692 74.058 30.012 C 74.658 26.532 75.718 24.022 77.238 22.482 C 78.758 20.942 81.278 20.172 84.798 20.172 C 85.538 20.172 86.483 20.252 87.633 20.412 C 88.783 20.572 89.628 20.752 90.168 20.952 L 88.518 25.542 C 87.018 25.262 85.643 25.122 84.393 25.122 C 83.143 25.122 82.248 25.222 81.708 25.422 C 81.168 25.622 80.848 26.022 80.748 26.622 L 79.278 35.112 L 81.168 35.112 C 81.848 35.112 82.353 35.037 82.683 34.887 C 83.013 34.737 83.228 34.392 83.328 33.852 Z M 94.967 39.372 L 88.967 39.372 L 96.857 20.622 L 105.677 20.622 L 106.997 39.372 L 100.967 39.372 L 100.847 36.402 L 96.137 36.402 Z M 100.097 26.382 L 97.997 31.632 L 100.397 31.632 L 100.397 26.382 Z M 114.377 39.372 L 108.437 39.372 L 112.817 20.622 L 120.257 20.622 L 120.797 30.162 L 121.007 30.162 L 124.907 20.622 L 132.347 20.622 L 130.127 39.372 L 124.157 39.372 L 125.417 30.282 L 125.207 30.282 L 121.457 39.372 L 117.107 39.372 L 116.477 30.282 L 116.327 30.282 Z M 145.936 32.292 L 140.236 32.292 L 139.846 34.572 L 146.836 34.572 L 145.996 39.372 L 133.306 39.372 L 136.606 20.622 L 149.146 20.622 L 147.586 25.422 L 141.436 25.422 L 141.016 27.942 L 146.716 27.942 Z M 148.665 39.042 L 150.345 34.092 C 152.025 34.552 153.565 34.782 154.965 34.782 C 156.365 34.782 157.495 34.722 158.355 34.602 L 158.595 33.102 L 156.105 32.862 C 154.205 32.682 152.86 32.252 152.07 31.572 C 151.28 30.892 150.885 29.932 150.885 28.692 C 150.885 28.152 150.945 27.552 151.065 26.892 C 151.525 24.332 152.36 22.572 153.57 21.612 C 154.78 20.652 156.655 20.172 159.195 20.172 C 161.735 20.172 163.975 20.422 165.915 20.922 L 164.355 25.722 C 162.615 25.422 161.215 25.272 160.155 25.272 C 159.095 25.272 158.195 25.322 157.455 25.422 L 157.215 26.892 L 159.225 27.102 C 161.265 27.322 162.715 27.807 163.575 28.557 C 164.435 29.307 164.865 30.312 164.865 31.572 C 164.865 32.852 164.585 34.172 164.025 35.532 C 163.745 36.232 163.44 36.817 163.11 37.287 C 162.78 37.757 162.36 38.157 161.85 38.487 C 161.34 38.817 160.875 39.067 160.455 39.237 C 160.035 39.407 159.505 39.532 158.865 39.612 C 157.925 39.752 156.775 39.822 155.415 39.822 C 152.935 39.822 150.685 39.562 148.665 39.042 Z" style="white-space: pre; fill: rgb(255, 255, 255);"/>
</svg>

<svg xmlns="http://www.w3.org/2000/svg" viewBox="0 0 200 40"><path d="M39.87 43.16H23.79c-.68.01-.87-.2-.78-.85.22-1.42.56-2.73 1.9-3.54.12-.07.2-.3.19-.46-.03-.58-.14-1.17-.14-1.74l-.02-23.8c0-.96 0-.96.98-.96l28.04-.02c.73 0 .9.23.9.93l-.02 25.35c0 .45.08.76.46 1.08 1.09.93 1.35 2.23 1.42 3.58.03.47-.34.42-.65.42l-5.8.03H39.86zM25.49 12.43v26.19h28.74v-26.2zm30.87 30.13c-.4-.98-.67-1.82-1.06-2.6-.27-.53-.78-.77-1.43-.72s-1.32.01-1.98.01l-26.04.01c-.35 0-.79.1-1.04.3-.9.76-1.14 1.83-1.22 3z" style="fill:#ccc" transform="translate(11.1 -7.4)"/><path d="M30.16 33.11c1.3 0 2.33 1.04 2.33 2.33a2.37 2.37 0 0 1-2.34 2.34 2.35 2.35 0 0 1-2.33-2.35 2.3 2.3 0 0 1 2.34-2.32m15.37 2.33a2.36 2.36 0 0 1-2.34 2.34 2.36 2.36 0 0 1-2.33-2.36c0-1.3 1.04-2.31 2.34-2.31s2.34 1.04 2.33 2.33m4.43-10.49a2.3 2.3 0 0 1-2.34-2.32c0-1.3 1.01-2.34 2.3-2.35a2.37 2.37 0 0 1 2.36 2.32 2.35 2.35 0 0 1-2.32 2.35m0 6.4a2.3 2.3 0 0 1-2.34-2.3c0-1.3 1.01-2.35 2.3-2.36A2.37 2.37 0 0 1 52.3 29a2.35 2.35 0 0 1-2.33 2.34m-15.5 4.12a2.3 2.3 0 0 1 2.3-2.35c1.3 0 2.35 1 2.36 2.3a2.4 2.4 0 0 1-2.3 2.37 2.34 2.34 0 0 1-2.36-2.32m13.15 0c0-1.31 1-2.34 2.3-2.35 1.3 0 2.35 1.02 2.37 2.3a2.4 2.4 0 0 1-2.32 2.37 2.35 2.35 0 0 1-2.35-2.32m-2.09-12.81a2.33 2.33 0 1 1-4.67-.07 2.33 2.33 0 0 1 4.67.07m-2.35 1.73c.96.01 1.76-.77 1.78-1.73a1.8 1.8 0 0 0-1.7-1.8 1.77 1.77 0 1 0-.08 3.53m-13.04.57a2.33 2.33 0 0 1-2.32-2.34 2.34 2.34 0 0 1 2.34-2.33 2.35 2.35 0 0 1 2.32 2.35 2.34 2.34 0 0 1-2.34 2.32m1.78-2.37a1.8 1.8 0 0 0-1.78-1.73 1.77 1.77 0 1 0 .06 3.53 1.8 1.8 0 0 0 1.72-1.8m18.01-8.86a2.36 2.36 0 0 1 2.36 2.32 2.4 2.4 0 0 1-2.34 2.35 2.3 2.3 0 0 1-2.33-2.34c0-1.3 1-2.33 2.31-2.33m-1.75 2.33c0 .96.8 1.77 1.75 1.77s1.76-.8 1.78-1.75a1.77 1.77 0 1 0-3.53-.02m-4.99-2.33c1.3 0 2.33 1.02 2.34 2.32a2.36 2.36 0 0 1-2.33 2.35 2.35 2.35 0 0 1-2.34-2.34 2.3 2.3 0 0 1 2.33-2.33m0 .56c-.98.01-1.75.79-1.75 1.76 0 .96.79 1.77 1.74 1.79A1.8 1.8 0 0 0 44.96 16a1.76 1.76 0 0 0-1.78-1.73m-15.36 1.77c0-1.3 1.04-2.32 2.33-2.32a2.33 2.33 0 1 1 0 4.66 2.34 2.34 0 0 1-2.33-2.34m.57.03c.01.96.81 1.75 1.76 1.75.98 0 1.8-.85 1.77-1.83a1.77 1.77 0 0 0-3.53.08m8.38 8.88a2.3 2.3 0 0 1-2.3-2.36 2.3 2.3 0 0 1 2.34-2.31 2.37 2.37 0 0 1 2.32 2.36 2.36 2.36 0 0 1-2.36 2.3m0-.57c.96 0 1.77-.78 1.8-1.73 0-.98-.82-1.81-1.8-1.8-.97 0-1.74.8-1.74 1.77s.78 1.75 1.74 1.76m-2.3-8.33a2.3 2.3 0 0 1 2.32-2.32 2.34 2.34 0 0 1 2.34 2.32 2.4 2.4 0 0 1-2.34 2.35 2.34 2.34 0 0 1-2.32-2.35m.56-.03c-.02.97.75 1.77 1.7 1.81.96.04 1.83-.8 1.83-1.78 0-.96-.79-1.74-1.76-1.75A1.75 1.75 0 0 0 35.03 16m-4.87 15.36a2.3 2.3 0 0 1-2.34-2.33 2.34 2.34 0 0 1 2.33-2.34 2.35 2.35 0 0 1 2.34 2.33 2.35 2.35 0 0 1-2.33 2.34m1.76-2.31a1.76 1.76 0 1 0-3.54-.06 1.76 1.76 0 0 0 3.54.06m2.55 0a2.33 2.33 0 1 1 2.34 2.3 2.3 2.3 0 0 1-2.34-2.3m2.33 1.73c.97 0 1.76-.79 1.76-1.75a1.8 1.8 0 0 0-1.75-1.78 1.76 1.76 0 1 0-.01 3.53m8.73-1.75a2.33 2.33 0 1 1-4.67 0 2.33 2.33 0 0 1 4.67 0m-.57 0c0-.96-.78-1.76-1.74-1.78-.99 0-1.8.8-1.78 1.8 0 .97.79 1.73 1.77 1.73.97 0 1.75-.78 1.75-1.75M31.46 41.2q1.63-.01 3.25.01c.17 0 .33.16.5.26-.16.1-.33.28-.48.28q-3.26.03-6.51 0c-.18 0-.36-.2-.53-.3.17-.08.34-.23.52-.23q1.62-.03 3.25-.02m-5.91.68-.91-.4.88-.28h.07l.87.3z" style="fill:#ccc" transform="translate(11.1 -7.4)"/><path d="M70.8 19.38 74.1.63h9.23q2.16 0 3.14.75.97.75.97 2.3a6.5 6.5 0 0 1-1 3.76 4.2 4.2 0 0 1-2.45 1.83l-.03.18q2.7.51 2.7 3.57a7 7 0 0 1-1.47 4.53 5 5 0 0 1-4.14 1.83Zm9.23-7.47h-2.25l-.54 3.06h2.22q.75 0 1.14-.6.4-.6.4-1.53t-.97-.93m.84-7.17h-1.8l-.5 2.79h1.76q1.38 0 1.38-1.95 0-.84-.84-.84M95.6 6.9l-1.38 7.8h2.37q1.17 0 1.74-.29t.75-1.3l1.38-7.8h-2.4q-1.14 0-1.7.28-.58.3-.76 1.3M99.05.18q3.81 0 5.43 1.48 1.62 1.5 1.62 4.58t-.97 6.46-3.1 5.25q-2.1 1.88-6.17 1.88-4.06 0-5.69-1.49-1.62-1.48-1.62-4.57 0-1.47.42-3.89.42-2.4 1.11-4.17a10 10 0 0 1 1.86-3.04Q94.2.17 99.05.17m12.24 19.2h-6L113.2.63h8.8l1.32 18.75h-6.03l-.12-2.97h-4.7Zm5.13-13-2.1 5.26h2.4V6.39Zm24.42 13h-6.27l-1.38-5.58h-1.23l-.96 5.58h-5.7L128.6.63h9q5.13 0 5.13 4.59 0 1.89-.57 3.6-1.05 3.24-3.3 4.32Zm-7.41-13.95-.66 3.75h1.32q1.03 0 1.54-.23.54-.22.72-1.29.2-1.05.2-1.3 0-.6-.47-.77a5 5 0 0 0-1.51-.16Zm9.84 13.95 3.3-18.75h7.98q3.87 0 5.5 1.36 1.64 1.37 1.64 4.43 0 1.56-.36 3.6-.9 5.04-3.08 7.2-2.17 2.16-7 2.16Zm10.5-13.95h-2.37l-1.59 9.15h2.37q1.17 0 1.74-.29t.75-1.3l1.05-5.97q.03-.18.03-.48 0-.69-.48-.9a4 4 0 0 0-1.5-.21M83.33 33.85l.15-.8h-1.44l.8-4.6h6.88l-1.77 10.02a21 21 0 0 1-7.35 1.35q-3.7 0-5.33-1.47t-1.63-4.53q0-1.3.42-3.8.9-5.23 3.18-7.54t7.56-2.3q1.1 0 2.83.23t2.54.54l-1.65 4.6q-2.25-.43-4.13-.43a9 9 0 0 0-2.68.3q-.81.3-.96 1.2l-1.47 8.5h1.89q1.02 0 1.51-.23.5-.23.65-1.04m11.64 5.52h-6l7.89-18.75h8.82L107 39.37h-6.03l-.12-2.97h-4.71Zm5.13-12.99L98 31.63h2.4v-5.25Zm14.28 13h-5.94l4.38-18.76h7.44l.54 9.54h.2l3.9-9.54h7.45l-2.22 18.75h-5.97l1.26-9.09h-.21l-3.75 9.1h-4.35l-.63-9.1h-.15Zm31.56-7.09h-5.7l-.4 2.28h7l-.84 4.8h-12.7l3.3-18.75h12.55l-1.56 4.8h-6.15l-.42 2.52h5.7Zm2.72 6.75 1.69-4.95q2.52.7 4.62.7t3.38-.19l.25-1.5-2.5-.24q-2.85-.26-4.03-1.29a3.6 3.6 0 0 1-1.19-2.88q0-.81.19-1.8.69-3.84 2.5-5.28 1.82-1.44 5.63-1.44t6.72.75l-1.56 4.8q-2.63-.45-4.2-.45-1.6 0-2.7.15l-.25 1.47 2.01.21q3.07.32 4.35 1.46a3.8 3.8 0 0 1 1.3 3.01q0 1.92-.84 3.96-.42 1.05-.92 1.76-.5.7-1.26 1.2t-1.4.75q-.62.26-1.58.37-1.41.21-3.46.21-3.7 0-6.75-.78" style="white-space:pre;fill:#fff"/></svg>
